!!!COM: Palestrina, Giovanni Perluigi da
!!!OPR: Panis quem ego dabo
!!!OTL: Agnus I
**kern	**kern	**kern	**kern
*Ibass	*Itenor	*Icalto	*Icant
!Bassus	!Tenor	!Altus	!Cantus
*clefF4	*clefGv2	*clefG2	*clefG2
*k[]	*k[]	*k[]	*k[]
*D:dor	*D:dor	*D:dor	*D:dor
*M4/2	*M4/2	*M4/2	*M4/2
=1	=1	=1	=1
0r	0r	0r	1.dd
.	.	.	2dd
=2	=2	=2	=2
0r	0r	1a	2cc
.	.	.	2a
.	.	2f	1dd
.	.	2g	.
=3	=3	=3	=3
0r	0r	4a	2cc#
.	.	4g	.
.	.	4f	2.dd
.	.	4e	.
.	.	2d	.
.	.	.	4cc
.	.	[2e	4b
.	.	.	4a
=4	=4	=4	=4
0r	1r	4e]	1b
.	.	4d	.
.	.	1g	.
.	[1d	.	1a
.	.	4f	.
.	.	4e	.
=5	=5	=5	=5
1r	2d]	1f	2.a
.	2d	.	.
.	.	.	4g
1A	2c	2e	4a
.	.	.	4b
.	2A	[2a	[2cc
=6	=6	=6	=6
2F	1d	2a]	2cc]
2G	.	4g	2b-
.	.	4f	.
4A	2c#	2e	1a
4G	.	.	.
4F	[2d	[2f	.
4E	.	.	.
=7	=7	=7	=7
2D	4d]	4f]	1a
.	4c	4g	.
2F	4B	1a	.
.	4A	.	.
1E	1B	.	2r
.	.	2g#	[2ee
=8	=8	=8	=8
1A	1A	2a	2ee]
.	.	2a	2cc
2d	1r	2f	2dd
2c	.	2g	4ee
.	.	.	4dd
=9	=9	=9	=9
1A	2r	4a	4cc
.	.	4g	4b
.	2a	4f	2cc
.	.	4e	.
1r	2f	2d	2dd
.	2g	2e	2b
=10	=10	=10	=10
1.d	4a	2f	1a
.	4g	.	.
.	4f	1a	.
.	4e	.	.
.	2d	.	1r
2d	2f	2f	.
=11	=11	=11	=11
2c	1e	2g	1cc
2A	.	2.a	.
1d	1f	.	2a
.	.	4g	.
.	.	2f	2b
=12	=12	=12	=12
2c	2g	2e	4cc
.	.	.	4b
2.d	4f	2.f	4a
.	4e	.	4g
.	1d	.	4f
4c	.	4e	4g
4B	.	4d	[2a
4A	.	4c	.
=13	=13	=13	=13
1B	2r	1d	2a]
.	1d	.	2g#
1A	.	2r	[1a
.	2c	[2e	.
=14	=14	=14	=14
0r	2A	2e]	0a]
.	2d	2f	.
.	2c	2e	.
.	2A	2c	.
=15	=15	=15	=15
1r	1B-	4d	2r
.	.	4e	.
.	.	4f	1dd
.	.	4g	.
2r	1A	2.a	.
[2A	.	.	2cc
.	.	4g	.
=16	=16	=16	=16
2A]	0r	4f	2a
.	.	4e	.
2B-	.	2d	2dd
2A	.	2e	2cc
2F	.	2f	2a
=17	=17	=17	=17
4G	2r	2d	1b-
4A	.	.	.
4B-	1g	2d	.
4c	.	.	.
[1d	.	4d	2a
.	.	4e	.
.	2f	4f	2dd
.	.	4g	.
=18	=18	=18	=18
2d]	2d	4a	2ff
.	.	4b	.
2c	2g	2cc	2.ee
1d	2f	1a	.
.	.	.	4dd
.	2d	.	[2dd
=19	=19	=19	=19
1A	1e	1a	2dd]
.	.	.	2cc#
1r	2d	2f#	2dd
.	2G	[2g	2b-
=20	=20	=20	=20
2r	2.d	2g]	1a
1d	.	2f	.
.	4e	.	.
.	2f	2d	1r
2c	2e	2g	.
=21	=21	=21	=21
2A	0r	2f	2r
2B-	.	2d	1dd
2G	.	1e	.
2A	.	.	2cc
=22	=22	=22	=22
1D	1r	1f	2a
.	.	.	2dd
1A	2r	2e	2cc
.	2A	[2a	2a
=23	=23	=23	=23
1r	1e	2a]	1b
.	.	2g#	.
2r	2.f	[1a	1a
4D	.	.	.
4E	4e	.	.
=24	=24	=24	=24
4F	2d	0a]	1r
4G	.	.	.
2A	2c	.	.
2D	1f	.	2r
[2d	.	.	2a
=25	=25	=25	=25
2d]	1e	1r	1ee
2c#	.	.	.
[1d	1r	2r	2.ff
.	.	4d	.
.	.	4e	4ee
=26	=26	=26	=26
2d]	1r	4f	2dd
.	.	4g	.
2A	.	2a	2cc
1r	2r	2d	1ff
.	4A	[2a	.
.	4B	.	.
=27	=27	=27	=27
1r	4c	2a]	2.ee
.	4d	.	.
.	2e	2g	.
.	.	.	4dd
2r	2A	[1a	2cc
2D	[2d	.	[2ff
=28	=28	=28	=28
1A	2d]	1a]	2ff]
.	2c#	.	2ee
2.B-	[1d	1f	2.dd
4A	.	.	4cc
=29	=29	=29	=29
2G	0d]	2r	2b-
2F	.	2.f	1a
1B-	.	.	.
.	.	4e	.
.	.	[2d	2g
=30	=30	=30	=30
1A	1e	2d]	1a
.	.	2c	.
4D	[1a	1f	2r
4E	.	.	.
4F	.	.	4a
4G	.	.	4b
=31	=31	=31	=31
4A	2a]	1e	4cc
4B	.	.	4dd
2c	2g	.	2ee
2d	2.f	2r	2a
2B-	.	2d	[2dd
.	4d	.	.
=32	=32	=32	=32
1A	1e	1a	2dd]
.	.	.	2cc#
1G	2g	2.b-	2.dd
.	4G	.	.
.	4A	4a	4cc
=33	=33	=33	=33
0r	4B-	2g	2b-
.	4c	.	.
.	2d	2f	2a
.	2G	1b-	1g
.	[2g	.	.
=34	=34	=34	=34
1D	2g]	1.a	2r
.	2f	.	4a
.	.	.	4b
1A	1e	.	4cc
.	.	.	4dd
.	.	2a	4ee
.	.	.	4cc
=35	=35	=35	=35
2.B-	2d	2f	2dd
.	2f	1b-	2dd
4A	.	.	.
2G	2g	.	2ee
2F	2c	[2a	[2ff
=36	=36	=36	=36
1B-	1d	4a]	4ff]
.	.	8g	4ee
.	.	8f	.
.	.	2g	1dd
1A	1e	1a	.
.	.	.	2cc#
=37	=37	=37	=37
0D	0d	0a	0dd
==	==	==	==
*-	*-	*-	*-
!!!CDT: 1525/^1526/-1594/2/2
!!!OCY: Italia
!!!AGN: Mass (Parody)
!!!AST: renaissance, vocal
!!!ASW: Motet 1532 (Lupus Hellinck)
!!!PWK: Masses, Book 5
!!!RNB: Cadence finals: A
!!!YOR: Le Opere Complete, v. 15, p. 45
!!!YOO: Rome, Italy: Fratelli Scalera
!!!END: 1992//
!!!EED: John Miller
!!!YEC: Copyright 2000, John Miller
!!!YEN: United States of America
!!!YEM: Rights to all derivative electronic formats reserved.
!!!YEM: Refer to licensing agreement for further details.
!!!YEM: This file must be accompanied by the licensing agreement.
!!!YEM: A copy of the licensing agreement may be found at http://www.music-cog.ohio-state.edu/HumdrumDatabases/Palestrina/license.txt
!!!EMD: converted to Humdrum by Bret Aarden
